X:1
T:Title
%%score { ( 1 3 ) | ( 2 4 ) }
L:1/8
M:4/4
K:D
V:1 treble nm="Grand Piano"
V:3 treble 
V:2 bass 
V:4 bass 
V:1
 z4 z2[Q:1/4=100] [DF][EG] | [FA]2 [FA]2 [GB][FA][DF][EG] | [FA]2 [Fd]2 [Fd]2 [Gc][GB] | %3
 [FA]2 [FA]2 [GB][FA]FD | F2 E2 z G,FG | [FA]2 [FA]2 [GB][FA][DF][EG] | %6
 [FA]2 [Fd]2 [Fd]2 [Gc][GB] | [FA]2 [FA]2 [GB][FA]DG | F2 [CE]2 D4 | B3 ^A BdcB | [FA]4 F4 | %11
 E3 A B2 c2 | A6[K:bass] z2 | [Fd]3 [DAd] [DAc]2 [DGB]2 | [FA]2 [A,DF]2 [DFA]2 Bc | %15
 [Fd]2 DG F2 z G, |[M:3/4] D6 |] %17
V:2
 z4 z2 [D,A,][D,A,] | [D,D]2 [D,D]2 [D,D][D,D][D,A,][D,A,] | [D,D]2 [D,A,]2 [D,A,]2 [D,A,][D,B,] | %3
 [D,D]2 [D,D]2 [D,D][D,D][D,A,D][F,A,] | [A,D]2 [A,C]2 [A,C]2 [F,A,D][E,A,E] | %5
 [D,D]2 [D,D]2 [D,D][D,D][D,A,][D,A,] | [D,D]2 [D,A,]2 [D,A,]2 [D,A,][D,B,] | %7
 [D,D]2 [D,D]2 [D,D][D,D][F,A,][G,B,D] | [A,D]2 [A,,G,]2 [D,F,]4 | %9
 [G,DG]3 [G,CG] [G,DG][G,B,G][G,CG][G,DG] | [D,D]4 [D,A,D]4 | [E,A,C]3 [E,A,C] [E,^G,D]2 [E,G,E]2 | %12
 z B,[K:treble]CD E2 z2 | [D,A,]3 F, G,A,B,C | z4 z2 G2 | [D,A,]2 [F,A,][G,B,D] [A,D]2 .[A,,A,]2 | %16
[M:3/4] [D,F,]6 |] %17
V:3
 x8 | x8 | x8 | x8 | z4 E2 z2 | x8 | x8 | x8 | x8 | x8 | x8 | x8 | [A,C]DEF G2[K:bass] (3G,F,E, | %13
 x8 | x8 | z4 z2 [CE]2 |[M:3/4] x6 |] %17
V:4
 x8 | x8 | x8 | x8 | x8 | x8 | x8 | x8 | x8 | x8 | x8 | x8 | A,,6[K:treble] z2 | x8 | %14
 D2 D,2 D,2 [G,D][E,A,] | x8 |[M:3/4] x6 |] %17

